packages/icons/src/components/Icon/assets/small-solid/filter.svg

<svg width="16" height="16" viewBox="0 0 16 16" fill="none" xmlns="http://www.w3.org/2000/svg">
<path d="M14.135 2.02252C14.135 1.4578 13.6772 1 13.1125 1H2.88727C2.32255 1 1.86475 1.4578 1.86475 2.02252V4.24301C1.86475 4.78539 2.08021 5.30555 2.46373 5.68907L5.35586 8.5812C5.73938 8.96472 5.95484 9.48489 5.95484 10.0273V14.4881C5.95484 14.8681 6.3548 15.1153 6.69474 14.9454L8.91445 13.8355C9.60728 13.4891 10.0449 12.781 10.0449 12.0064V10.0273C10.0449 9.48489 10.2604 8.96472 10.6439 8.5812L13.536 5.68907C13.9196 5.30555 14.135 4.78538 14.135 4.24301V2.02252Z" fill="black"/>
</svg>

<svg xmlns="http://www.w3.org/2000/svg" width="16" height="16" fill="none" viewBox="0 0 16 16">
    <path d="M14.135 2.023c0-.565-.458-1.023-1.022-1.023H2.887c-.564 0-1.022.458-1.022 1.023v2.22c0 .542.215 1.063.599 1.446l2.892 2.892c.383.384.599.904.599 1.446v4.461c0 .38.4.627.74.457l2.22-1.11a2.05 2.05 0 0 0 1.13-1.829v-1.979c0-.542.215-1.062.599-1.446l2.892-2.892c.384-.383.599-.904.599-1.446z"/>
</svg>
